X: 172
T:St. Lawrence Jig
% Nottingham Music Database
S:Trad, arr Phil Rowe
M:6/8
K:D
A|"D"ABA FAd|f2d A2d|"A"c2B G2B|"D"B2A F3|
ABA FAd|"D"f2d A2d|"A"c2e ABc|"D"d3 -d2::
f|"G"a2g B3|"D"g2f A3|"A"d2c cBc|"D"edB "D7"A3|"G"a2g B3|"D"g2f A3|"A7"d2c cBc\
|"D"d3 -d2:|<end>
<start>
